;FLAVOR:Marlin
;TIME:4622
;Filament used: 3.50948m
;Layer height: 0.16
;MINX:76.861
;MINY:88.35
;MINZ:0.2
;MAXX:143.139
;MAXY:131.65
;MAXZ:54.96
;Generated with Cura_SteamEngine 4.11.0
M140 S50
M105
M190 S50
M104 S200
M105
M109 S200
M82 ;absolute extrusion mode
; Ender 3 Custom Start G-code
G92 E0 ; Reset Extruder
G28 ; Home all axes
G1 Z2.0 F3000 ; Move Z Axis up little to prevent scratching of Heat Bed
G1 X0.1 Y20 Z0.3 F5000.0 ; Move to start position
G1 X0.1 Y200.0 Z0.3 F1500.0 E15 ; Draw the first line
G1 X0.4 Y200.0 Z0.3 F5000.0 ; Move to side a little
G1 X0.4 Y20 Z0.3 F1500.0 E30 ; Draw the second line
G92 E0 ; Reset Extruder
G1 Z2.0 F3000 ; Move Z Axis up little to prevent scratching of Heat Bed
G1 X5 Y20 Z0.3 F5000.0 ; Move over to prevent blob squish
G92 E0
G92 E0
G1 F2700 E-5
;LAYER_COUNT:279
;LAYER:0
M107
G0 F6000 X84.087 Y93.859 Z0.2
;TYPE:SKIRT
G1 F2700 E0
G1 F1200 X84.493 Y93.505 E0.01792
G1 X84.863 Y93.198 E0.03391
G1 X85.161 Y92.958 E0.04663
G1 X85.426 Y92.757 E0.0577
G1 X85.899 Y92.408 E0.07725
G1 X86.34 Y92.099 E0.09516
G1 X86.698 Y91.861 E0.10945
G1 X87.031 Y91.647 E0.12262
G1 X87.26 Y91.508 E0.13153
G1 X87.604 Y91.304 E0.14483
G1 X87.89 Y91.14 E0.1558
G1 X88.309 Y90.911 E0.17168
G1 X88.71 Y90.701 E0.18673
G1 X89.218 Y90.452 E0.20555
G1 X89.69 Y90.235 E0.22283
G1 X90.178 Y90.025 E0.2405
G1 X90.655 Y89.833 E0.2576
G1 X90.997 Y89.701 E0.26979
G1 X91.148 Y89.646 E0.27514
G1 X91.739 Y89.444 E0.29591
G1 X92.034 Y89.348 E0.30623
G1 X92.236 Y89.286 E0.31326
G1 X92.519 Y89.204 E0.32306
G1 X92.958 Y89.082 E0.33821
G1 X93.482 Y88.95 E0.35619
G1 X93.943 Y88.846 E0.3719
G1 X94.245 Y88.782 E0.38217
G1 X94.693 Y88.698 E0.39733
G1 X95.172 Y88.617 E0.41349
G1 X95.735 Y88.537 E0.4324
G1 X96.165 Y88.487 E0.4468
G1 X96.426 Y88.459 E0.45553
G1 X96.632 Y88.44 E0.46241
G1 X96.977 Y88.414 E0.47392
G1 X97.472 Y88.384 E0.49041
G1 X97.987 Y88.365 E0.50755
G1 X99.164 Y88.35 E0.54671
G1 X120.783 Y88.35 E1.26576
G1 X121.984 Y88.366 E1.3057
G1 X122.29 Y88.375 E1.31589
G1 X122.669 Y88.391 E1.3285
G1 X123.201 Y88.426 E1.34624
G1 X123.619 Y88.464 E1.3602
G1 X123.949 Y88.499 E1.37123
G1 X124.229 Y88.533 E1.38062
G1 X124.508 Y88.571 E1.38998
G1 X124.942 Y88.635 E1.40457
G1 X125.503 Y88.732 E1.42351
G1 X125.976 Y88.827 E1.43955
G1 X126.302 Y88.898 E1.45065
G1 X126.649 Y88.981 E1.46252
G1 X127.169 Y89.115 E1.48038
G1 X127.695 Y89.265 E1.49857
G1 X128.122 Y89.398 E1.51344
G1 X128.384 Y89.483 E1.52261
G1 X128.555 Y89.541 E1.52861
G1 X128.853 Y89.647 E1.53913
G1 X129.254 Y89.796 E1.55336
G1 X129.588 Y89.926 E1.56528
G1 X129.887 Y90.05 E1.57605
G1 X130.315 Y90.236 E1.59157
G1 X130.623 Y90.375 E1.60281
G1 X130.931 Y90.523 E1.61417
G1 X131.412 Y90.763 E1.63205
G1 X131.89 Y91.017 E1.65006
G1 X132.285 Y91.239 E1.66513
G1 X132.605 Y91.425 E1.67744
G1 X132.886 Y91.598 E1.68841
G1 X133.272 Y91.842 E1.7036
G1 X133.598 Y92.055 E1.71655
G1 X133.863 Y92.238 E1.72726
G1 X134.18 Y92.463 E1.74019
G1 X134.537 Y92.726 E1.75494
G1 X134.726 Y92.872 E1.76288
G1 X135.126 Y93.188 E1.77984
G1 X135.554 Y93.544 E1.79835
G1 X136.077 Y94.004 E1.82152
G1 X136.452 Y94.356 E1.83863
G1 X136.803 Y94.7 E1.85497
G1 X137.074 Y94.975 E1.86782
G1 X137.284 Y95.198 E1.878
G1 X137.621 Y95.565 E1.89458
G1 X137.973 Y95.967 E1.91235
G1 X138.291 Y96.349 E1.92888
G1 X138.542 Y96.661 E1.9422
G1 X138.728 Y96.905 E1.9524
G1 X139.032 Y97.315 E1.96938
G1 X139.221 Y97.578 E1.98015
G1 X139.399 Y97.836 E1.99057
G1 X139.636 Y98.192 E2.0048
G1 X139.829 Y98.493 E2.01669
G1 X139.98 Y98.74 E2.02632
G1 X140.197 Y99.106 E2.04047
G1 X140.339 Y99.353 E2.04995
G1 X140.449 Y99.55 E2.05745
G1 X140.589 Y99.809 E2.06725
G1 X140.798 Y100.208 E2.08223
G1 X141.048 Y100.717 E2.10109
G1 X141.265 Y101.189 E2.11837
G1 X141.478 Y101.684 E2.13629
G1 X141.67 Y102.162 E2.15342
G1 X141.791 Y102.475 E2.16458
G1 X141.942 Y102.898 E2.17952
G1 X142.06 Y103.248 E2.19181
G1 X142.209 Y103.721 E2.2083
G1 X142.298 Y104.024 E2.2188
G1 X142.42 Y104.464 E2.23399
G1 X142.55 Y104.982 E2.25175
G1 X142.654 Y105.443 E2.26747
G1 X142.735 Y105.827 E2.28053
G1 X142.801 Y106.186 E2.29267
G1 X142.884 Y106.679 E2.30929
G1 X142.962 Y107.226 E2.32767
G1 X143.008 Y107.619 E2.34083
G1 X143.037 Y107.89 E2.3499
G1 X143.059 Y108.129 E2.35788
G1 X143.084 Y108.461 E2.36895
G1 X143.114 Y108.948 E2.38518
G1 X143.134 Y109.488 E2.40315
G1 X143.139 Y109.893 E2.41663
G1 X143.139 Y110.191 E2.42654
G1 X143.135 Y110.462 E2.43555
G1 X143.126 Y110.761 E2.4455
G1 X143.109 Y111.166 E2.45898
G1 X143.074 Y111.698 E2.47672
G1 X143.038 Y112.095 E2.48997
G1 X143.005 Y112.408 E2.50044
G1 X142.969 Y112.709 E2.51053
G1 X142.929 Y113.008 E2.52056
G1 X142.865 Y113.442 E2.53515
G1 X142.768 Y114.003 E2.55409
G1 X142.673 Y114.476 E2.57013
G1 X142.602 Y114.802 E2.58123
G1 X142.519 Y115.149 E2.5931
G1 X142.385 Y115.669 E2.61096
G1 X142.235 Y116.195 E2.62915
G1 X142.102 Y116.622 E2.64402
G1 X142.017 Y116.884 E2.65318
G1 X141.959 Y117.055 E2.65919
G1 X141.853 Y117.353 E2.66971
G1 X141.704 Y117.754 E2.68394
G1 X141.574 Y118.088 E2.69586
G1 X141.436 Y118.419 E2.70779
G1 X141.212 Y118.93 E2.72634
G1 X140.976 Y119.433 E2.74482
G1 X140.732 Y119.921 E2.76297
G1 X140.497 Y120.365 E2.77968
G1 X140.277 Y120.759 E2.79469
G1 X140.061 Y121.129 E2.80894
G1 X139.898 Y121.393 E2.81926
G1 X139.653 Y121.78 E2.83449
G1 X139.446 Y122.097 E2.84708
G1 X139.257 Y122.37 E2.85813
G1 X139.028 Y122.692 E2.87127
G1 X138.773 Y123.038 E2.88556
G1 X138.624 Y123.23 E2.89365
G1 X138.314 Y123.622 E2.91027
G1 X138.059 Y123.933 E2.92365
G1 X137.875 Y124.148 E2.93306
G1 X137.528 Y124.541 E2.9505
G1 X137.128 Y124.969 E2.96998
G1 X136.79 Y125.313 E2.98602
G1 X136.494 Y125.605 E2.99985
G1 X136.32 Y125.769 E3.0078
G1 X135.985 Y126.078 E3.02296
G1 X135.569 Y126.442 E3.04135
G1 X135.155 Y126.787 E3.05927
G1 X134.839 Y127.042 E3.07278
G1 X134.595 Y127.228 E3.08298
G1 X134.185 Y127.532 E3.09996
G1 X133.896 Y127.739 E3.11178
G1 X133.665 Y127.898 E3.12111
G1 X133.315 Y128.131 E3.13509
G1 X133.015 Y128.324 E3.14696
G1 X132.743 Y128.491 E3.15757
G1 X132.406 Y128.691 E3.17061
G1 X132.13 Y128.849 E3.18118
G1 X131.93 Y128.96 E3.18879
G1 X131.693 Y129.088 E3.19775
G1 X131.288 Y129.3 E3.21295
G1 X130.782 Y129.548 E3.2317
G1 X130.31 Y129.765 E3.24898
G1 X129.823 Y129.975 E3.26661
G1 X129.351 Y130.165 E3.28354
G1 X129.018 Y130.293 E3.2954
G1 X128.862 Y130.35 E3.30093
G1 X128.61 Y130.438 E3.30981
G1 X128.261 Y130.556 E3.32206
G1 X127.966 Y130.652 E3.33238
G1 X127.764 Y130.714 E3.3394
G1 X127.481 Y130.796 E3.3492
G1 X127.042 Y130.918 E3.36436
G1 X126.518 Y131.05 E3.38233
G1 X126.057 Y131.154 E3.39805
G1 X125.755 Y131.218 E3.40832
G1 X125.307 Y131.302 E3.42348
G1 X124.828 Y131.383 E3.43964
G1 X124.265 Y131.463 E3.45855
G1 X123.835 Y131.513 E3.47295
G1 X123.574 Y131.541 E3.48168
G1 X123.368 Y131.56 E3.48856
G1 X123.023 Y131.586 E3.50007
G1 X122.528 Y131.616 E3.51656
G1 X122.013 Y131.635 E3.5337
G1 X120.836 Y131.65 E3.57285
G1 X99.059 Y131.649 E4.29716
G1 X98.016 Y131.634 E4.33185
G1 X97.71 Y131.625 E4.34203
G1 X97.331 Y131.609 E4.35465
G1 X96.799 Y131.574 E4.37238
G1 X96.381 Y131.536 E4.38634
G1 X96.051 Y131.501 E4.39738
G1 X95.771 Y131.467 E4.40676
G1 X95.492 Y131.429 E4.41613
G1 X95.058 Y131.365 E4.43072
G1 X94.497 Y131.268 E4.44965
G1 X94.024 Y131.173 E4.4657
G1 X93.698 Y131.102 E4.4768
G1 X93.351 Y131.019 E4.48866
G1 X92.831 Y130.885 E4.50652
G1 X92.305 Y130.735 E4.52472
G1 X91.878 Y130.602 E4.53959
G1 X91.616 Y130.517 E4.54875
G1 X91.445 Y130.459 E4.55476
G1 X91.138 Y130.35 E4.56559
G1 X90.73 Y130.198 E4.58007
G1 X90.436 Y130.084 E4.59056
G1 X90.108 Y129.947 E4.60239
G1 X89.478 Y129.671 E4.62526
G1 X89.069 Y129.477 E4.64032
G1 X88.586 Y129.236 E4.65827
G1 X88.124 Y128.991 E4.67566
G1 X87.731 Y128.771 E4.69064
G1 X87.244 Y128.482 E4.70948
G1 X86.742 Y128.166 E4.72921
G1 X86.424 Y127.959 E4.74183
G1 X86.134 Y127.76 E4.75353
G1 X85.813 Y127.532 E4.76662
G1 X85.462 Y127.273 E4.78113
G1 X85.274 Y127.128 E4.78903
G1 X84.874 Y126.812 E4.80598
G1 X84.446 Y126.456 E4.8245
G1 X83.94 Y126.011 E4.84691
G1 X83.88 Y125.957 E4.8496
G1 X83.53 Y125.628 E4.86557
G1 X83.187 Y125.291 E4.88156
G1 X82.895 Y124.994 E4.89542
G1 X82.732 Y124.821 E4.90332
G1 X82.422 Y124.485 E4.91853
G1 X82.05 Y124.06 E4.93731
G1 X81.704 Y123.644 E4.95531
G1 X81.455 Y123.334 E4.96854
G1 X81.251 Y123.067 E4.97971
G1 X80.961 Y122.675 E4.99593
G1 X80.76 Y122.396 E5.00737
G1 X80.597 Y122.158 E5.01696
G1 X80.362 Y121.805 E5.03107
G1 X80.141 Y121.459 E5.04472
G1 X80 Y121.228 E5.05372
G1 X79.796 Y120.883 E5.06705
G1 X79.551 Y120.45 E5.0836
G1 X79.41 Y120.19 E5.09344
G1 X79.2 Y119.789 E5.10849
G1 X78.946 Y119.271 E5.12768
G1 X78.73 Y118.8 E5.14492
G1 X78.54 Y118.362 E5.1608
G1 X78.318 Y117.809 E5.18061
G1 X78.15 Y117.362 E5.1965
G1 X78.052 Y117.083 E5.20633
G1 X77.938 Y116.744 E5.21823
G1 X77.85 Y116.473 E5.22771
G1 X77.786 Y116.265 E5.23494
G1 X77.704 Y115.984 E5.24468
G1 X77.583 Y115.55 E5.25966
G1 X77.445 Y115 E5.27852
G1 X77.342 Y114.54 E5.2942
G1 X77.282 Y114.255 E5.30389
G1 X77.197 Y113.803 E5.31919
G1 X77.116 Y113.323 E5.33538
G1 X77.039 Y112.78 E5.35362
G1 X76.99 Y112.364 E5.36755
G1 X76.957 Y112.044 E5.37825
G1 X76.936 Y111.806 E5.3862
G1 X76.913 Y111.503 E5.3963
G1 X76.885 Y111.04 E5.41173
G1 X76.866 Y110.512 E5.4293
G1 X76.861 Y110.107 E5.44278
G1 X76.861 Y109.809 E5.45269
G1 X76.865 Y109.538 E5.4617
G1 X76.874 Y109.239 E5.47165
G1 X76.891 Y108.834 E5.48513
G1 X76.926 Y108.299 E5.50297
G1 X76.964 Y107.881 E5.51693
G1 X76.999 Y107.551 E5.52796
G1 X77.033 Y107.271 E5.53734
G1 X77.071 Y106.992 E5.54671
G1 X77.135 Y106.558 E5.5613
G1 X77.232 Y105.997 E5.58024
G1 X77.327 Y105.524 E5.59628
G1 X77.398 Y105.198 E5.60738
G1 X77.481 Y104.851 E5.61925
G1 X77.615 Y104.331 E5.63711
G1 X77.767 Y103.798 E5.65554
G1 X77.9 Y103.372 E5.67038
G1 X77.997 Y103.074 E5.68081
G1 X78.063 Y102.882 E5.68756
G1 X78.15 Y102.64 E5.69611
G1 X78.291 Y102.259 E5.70963
G1 X78.426 Y101.912 E5.72201
G1 X78.548 Y101.619 E5.73257
G1 X78.735 Y101.188 E5.74819
G1 X78.914 Y100.794 E5.76259
G1 X79.033 Y100.549 E5.77164
G1 X79.268 Y100.079 E5.78912
G1 X79.503 Y99.635 E5.80583
G1 X79.723 Y99.241 E5.82084
G1 X79.939 Y98.871 E5.83509
G1 X80.102 Y98.607 E5.84541
G1 X80.347 Y98.22 E5.86064
G1 X80.554 Y97.903 E5.87324
G1 X80.743 Y97.63 E5.88428
G1 X80.972 Y97.308 E5.89742
G1 X81.217 Y96.975 E5.91117
G1 X81.378 Y96.766 E5.91995
G1 X81.692 Y96.369 E5.93678
G1 X82.044 Y95.946 E5.95508
G1 X82.482 Y95.448 E5.97714
G1 X82.535 Y95.389 E5.97978
G1 X82.872 Y95.031 E5.99613
G1 X83.21 Y94.687 E6.01217
G1 X83.453 Y94.447 E6.02353
G1 X83.718 Y94.197 E6.03565
G1 X84.087 Y93.859 E6.05229
G0 F6000 X84.357 Y94.154
G1 F1200 X84.748 Y93.812 E6.06957
G1 X85.118 Y93.505 E6.08556
G1 X85.408 Y93.273 E6.09791
G1 X85.664 Y93.078 E6.10862
G1 X86.137 Y92.729 E6.12817
G1 X86.562 Y92.432 E6.14541
G1 X86.92 Y92.194 E6.15971
G1 X87.243 Y91.986 E6.17249
G1 X87.464 Y91.852 E6.18109
G1 X87.808 Y91.648 E6.19439
G1 X88.083 Y91.49 E6.20494
G1 X88.494 Y91.266 E6.22051
G1 X88.895 Y91.056 E6.23556
G1 X89.385 Y90.815 E6.25372
G1 X89.857 Y90.598 E6.271
G1 X90.327 Y90.396 E6.28802
G1 X90.804 Y90.204 E6.30512
G1 X91.134 Y90.077 E6.31688
G1 X91.518 Y89.94 E6.33044
G1 X91.867 Y89.822 E6.34269
G1 X92.354 Y89.669 E6.35967
G1 X92.626 Y89.589 E6.3691
G1 X93.065 Y89.467 E6.38426
G1 X93.57 Y89.34 E6.40157
G1 X94.031 Y89.236 E6.41729
G1 X94.485 Y89.143 E6.43271
G1 X94.76 Y89.092 E6.44201
G1 X95.239 Y89.011 E6.45817
G1 X95.782 Y88.934 E6.47641
G1 X96.212 Y88.884 E6.49081
G1 X96.668 Y88.839 E6.50605
G1 X97.001 Y88.813 E6.51716
G1 X97.496 Y88.783 E6.53365
G1 X97.993 Y88.765 E6.55019
G1 X99.164 Y88.75 E6.58914
G1 X120.783 Y88.75 E7.30819
G1 X121.978 Y88.766 E7.34794
G1 X122.273 Y88.774 E7.35776
G1 X122.652 Y88.79 E7.37037
G1 X123.165 Y88.825 E7.38748
G1 X123.583 Y88.863 E7.40144
G1 X123.901 Y88.896 E7.41207
G1 X124.181 Y88.93 E7.42145
G1 X124.449 Y88.966 E7.43044
G1 X124.883 Y89.03 E7.44504
G1 X125.424 Y89.125 E7.4633
G1 X126.121 Y89.267 E7.48696
G1 X126.549 Y89.368 E7.50159
G1 X127.069 Y89.502 E7.51945
G1 X127.576 Y89.647 E7.53699
G1 X128.003 Y89.78 E7.55186
G1 X128.256 Y89.862 E7.56071
G1 X128.427 Y89.92 E7.56672
G1 X128.714 Y90.022 E7.57685
G1 X129.115 Y90.171 E7.59107
G1 X129.44 Y90.297 E7.60267
G1 X129.728 Y90.417 E7.61304
G1 X130.156 Y90.603 E7.62857
G1 X130.455 Y90.738 E7.63948
G1 X130.753 Y90.881 E7.65047
G1 X131.234 Y91.121 E7.66835
G1 X131.694 Y91.365 E7.68567
G1 X132.089 Y91.587 E7.70074
G1 X132.397 Y91.767 E7.7126
G1 X132.672 Y91.936 E7.72334
G1 X133.058 Y92.18 E7.73853
G1 X133.376 Y92.388 E7.75117
G1 X133.631 Y92.564 E7.76147
G1 X133.948 Y92.789 E7.7744
G1 X134.296 Y93.046 E7.78879
G1 X134.478 Y93.186 E7.79643
G1 X134.878 Y93.502 E7.81338
G1 X135.29 Y93.845 E7.83121
G1 X135.809 Y94.301 E7.85419
G1 X136.172 Y94.642 E7.87076
G1 X136.523 Y94.986 E7.8871
G1 X136.784 Y95.25 E7.89945
G1 X136.99 Y95.469 E7.90945
G1 X137.327 Y95.836 E7.92602
G1 X137.666 Y96.223 E7.94313
G1 X137.984 Y96.605 E7.95967
G1 X138.227 Y96.908 E7.97258
G1 X138.407 Y97.144 E7.98246
G1 X138.711 Y97.554 E7.99943
G1 X138.894 Y97.809 E8.00987
G1 X139.066 Y98.058 E8.01994
G1 X139.303 Y98.414 E8.03416
G1 X139.49 Y98.706 E8.04569
G1 X139.636 Y98.944 E8.05498
G1 X139.853 Y99.31 E8.06913
G1 X139.99 Y99.548 E8.07827
G1 X140.1 Y99.745 E8.08577
G1 X140.235 Y99.995 E8.09522
G1 X140.444 Y100.394 E8.1102
G1 X140.685 Y100.884 E8.12836
G1 X140.902 Y101.356 E8.14564
G1 X141.107 Y101.833 E8.16291
G1 X141.299 Y102.311 E8.18004
G1 X141.415 Y102.613 E8.1908
G1 X141.563 Y103.026 E8.2054
G1 X141.681 Y103.376 E8.21768
G1 X141.827 Y103.839 E8.23383
G1 X141.913 Y104.131 E8.24395
G1 X142.035 Y104.571 E8.25914
G1 X142.16 Y105.07 E8.27625
G1 X142.264 Y105.531 E8.29197
G1 X142.343 Y105.906 E8.30471
G1 X142.407 Y106.252 E8.31642
G1 X142.49 Y106.745 E8.33304
G1 X142.565 Y107.273 E8.35078
G1 X142.611 Y107.666 E8.36394
G1 X142.638 Y107.926 E8.37264
G1 X142.66 Y108.165 E8.38062
G1 X142.685 Y108.485 E8.39129
G1 X142.715 Y108.972 E8.40752
G1 X142.734 Y109.493 E8.42486
G1 X142.739 Y109.898 E8.43833
G1 X142.739 Y110.185 E8.44788
G1 X142.735 Y110.456 E8.45689
G1 X142.727 Y110.745 E8.46651
G1 X142.71 Y111.15 E8.47999
G1 X142.676 Y111.662 E8.49706
G1 X142.64 Y112.059 E8.51032
G1 X142.608 Y112.361 E8.52042
G1 X142.572 Y112.662 E8.5305
G1 X142.534 Y112.949 E8.54013
G1 X142.47 Y113.383 E8.55472
G1 X142.375 Y113.924 E8.57299
G1 X142.233 Y114.621 E8.59665
G1 X142.132 Y115.049 E8.61127
G1 X141.998 Y115.569 E8.62913
G1 X141.853 Y116.076 E8.64667
G1 X141.72 Y116.503 E8.66155
G1 X141.638 Y116.756 E8.67039
G1 X141.58 Y116.927 E8.6764
G1 X141.478 Y117.214 E8.68653
G1 X141.329 Y117.615 E8.70076
G1 X141.203 Y117.94 E8.71235
G1 X141.069 Y118.259 E8.72386
G1 X140.845 Y118.77 E8.74242
G1 X140.618 Y119.254 E8.7602
G1 X140.374 Y119.742 E8.77835
G1 X140.148 Y120.17 E8.79444
G1 X139.928 Y120.564 E8.80945
G1 X139.72 Y120.92 E8.82317
G1 X139.56 Y121.179 E8.83329
G1 X139.315 Y121.566 E8.84853
G1 X139.113 Y121.875 E8.8608
G1 X138.931 Y122.138 E8.87144
G1 X138.702 Y122.46 E8.88458
G1 X138.453 Y122.797 E8.89852
G1 X138.31 Y122.982 E8.9063
G1 X138 Y123.374 E8.92292
G1 X137.753 Y123.676 E8.9359
G1 X137.575 Y123.883 E8.94498
G1 X137.228 Y124.276 E8.96241
G1 X136.843 Y124.689 E8.98119
G1 X136.505 Y125.033 E8.99723
G1 X136.216 Y125.317 E9.01071
G1 X136.049 Y125.475 E9.01836
G1 X135.714 Y125.784 E9.03351
G1 X135.313 Y126.135 E9.05124
G1 X134.899 Y126.48 E9.06916
G1 X134.592 Y126.727 E9.08227
G1 X134.356 Y126.907 E9.09214
G1 X133.946 Y127.211 E9.10912
G1 X133.666 Y127.412 E9.12058
G1 X133.443 Y127.565 E9.12958
G1 X133.093 Y127.798 E9.14356
G1 X132.801 Y127.986 E9.15511
G1 X132.539 Y128.147 E9.16534
